app/assets/images/logo.svg

<svg width="1014" height="512" xmlns="http://www.w3.org/2000/svg" preserveAspectRatio="xMidYMid">

 <g>
  <title>background</title>
  <rect fill="none" id="canvas_background" height="514" width="1016" y="-1" x="-1"/>
 </g>
 <g>
  <title>Layer 1</title>
  <circle fill="#ffffff" id="svg_1" r="256" cy="256" cx="256" class="cls-1"/>
  <path fill-rule="evenodd" fill="#000000" id="svg_2" d="m256,512c-141.385,0 -256,-114.615 -256,-256c0,-141.385 114.615,-256 256,-256c141.385,0 256,114.615 256,256c0,141.385 -114.615,256 -256,256zm94.424,-196.206l1.063,-87.017c0,0 -0.568,-3.145 -2.715,-4.406c-12.084,-7.099 -60.399,-35.483 -71.865,-42.218c-3.131,-1.839 -2.449,1.732 -2.449,1.732c0,0 0,73.683 0,88.275c0,1.946 1.775,3.525 1.775,3.525c0,0 58.444,33.975 71.562,41.601c3.179,1.848 2.629,-1.492 2.629,-1.492zm-76.336,46.093c10.321,-5.692 59.696,-32.924 71.496,-39.431c3.294,-1.817 -0.378,-3.12 -0.378,-3.12c0,0 -59.721,-35.243 -69.936,-41.272c-1.632,-0.963 -4.855,0.519 -4.855,0.519l-71.751,41.098c0,0 -2.931,1.084 0.289,2.859c13.21,7.286 70.576,38.924 70.576,38.924c0,0 3.05,1.255 4.559,0.423zm-163.97,-179.828l-1.103,180.604c0,0 0.385,2.75 2.061,3.657c17.333,9.377 137.769,74.537 155.731,84.255c2.82,1.525 2.248,-1.562 2.248,-1.562l0.285,-79.785c0,0 -0.535,-2.468 -2.65,-3.612c-13.74,-7.433 -76.094,-41.164 -76.094,-41.164c0,0 0,-85.901 0,-98.151c0,-1.151 -1.372,-2.219 -1.372,-2.219c0,0 -64.931,-36.533 -77.129,-43.396c-2.482,-1.396 -1.977,1.373 -1.977,1.373zm318.341,-5.71c-19.592,-10.52 -139.737,-75.038 -154.732,-83.09c-1.161,-0.623 -3.273,0.09 -3.273,0.09c0,0 -139.24,73.32 -156.163,82.231c-2.445,1.287 0.057,2.119 0.057,2.119l76.787,42.797c0,0 2.107,0.745 3.421,-0.007c11.66,-6.674 79.595,-45.559 79.595,-45.559l77.265,46.241c0,0 2.833,1.152 4.618,0.119c12.489,-7.231 72.811,-42.154 72.811,-42.154c0,0 2.833,-1.058 -0.386,-2.787z" class="cls-2"/>
  <path opacity="0.1" fill-rule="evenodd" fill="#ffffff" id="svg_3" d="m75.001,436.988c-99.96,-99.96 -99.96,-262.027 0,-361.987c99.96,-99.96 262.027,-99.96 361.987,0" class="cls-3"/>
  <path opacity="0.1" fill-rule="evenodd" fill="#000000" id="svg_4" d="m437.025,75.012c99.967,99.967 99.967,262.046 0,362.013c-99.967,99.967 -262.046,99.967 -362.013,0" class="cls-4"/>
  <text stroke="#000" transform="matrix(1,0,0,1.3035763502120972,0,-110.27885259501636) " font-weight="bold" xml:space="preserve" text-anchor="start" font-family="Helvetica, Arial, sans-serif" font-size="180" id="svg_5" y="341.518182" x="513.196262" stroke-width="0" fill="#000000">Cubik</text>
 </g>
</svg>

<?xml version="1.0" ?><svg height="512" preserveAspectRatio="xMidYMid" viewBox="0 0 512 512" width="512" xmlns="http://www.w3.org/2000/svg" xmlns:xlink="http://www.w3.org/1999/xlink"><defs><style>
      .cls-1, .cls-3 {
        fill: #fff;
      }

      .cls-2, .cls-4 {
        fill: #000;
      }

      .cls-2, .cls-3, .cls-4 {
        fill-rule: evenodd;
      }

      .cls-3, .cls-4 {
        opacity: 0.1;
      }
    </style></defs><circle class="cls-1" cx="256" cy="256" r="256"/><path class="cls-2" d="M256.000,512.000 C114.615,512.000 0.000,397.385 0.000,256.000 C0.000,114.615 114.615,0.000 256.000,0.000 C397.385,0.000 512.000,114.615 512.000,256.000 C512.000,397.385 397.385,512.000 256.000,512.000 ZM350.424,315.794 L351.487,228.777 C351.487,228.777 350.919,225.632 348.772,224.371 C336.688,217.272 288.373,188.888 276.907,182.153 C273.776,180.314 274.458,183.885 274.458,183.885 C274.458,183.885 274.458,257.568 274.458,272.160 C274.458,274.106 276.233,275.685 276.233,275.685 C276.233,275.685 334.677,309.660 347.795,317.286 C350.974,319.134 350.424,315.794 350.424,315.794 ZM274.088,361.887 C284.409,356.195 333.784,328.963 345.584,322.456 C348.878,320.639 345.206,319.336 345.206,319.336 C345.206,319.336 285.485,284.093 275.270,278.064 C273.638,277.101 270.415,278.583 270.415,278.583 L198.664,319.681 C198.664,319.681 195.733,320.765 198.953,322.540 C212.163,329.826 269.529,361.464 269.529,361.464 C269.529,361.464 272.579,362.719 274.088,361.887 ZM110.118,182.059 L109.015,362.663 C109.015,362.663 109.400,365.413 111.076,366.320 C128.409,375.697 248.845,440.857 266.807,450.575 C269.627,452.100 269.055,449.013 269.055,449.013 L269.340,369.228 C269.340,369.228 268.805,366.760 266.690,365.616 C252.950,358.183 190.596,324.452 190.596,324.452 C190.596,324.452 190.596,238.551 190.596,226.301 C190.596,225.150 189.224,224.082 189.224,224.082 C189.224,224.082 124.293,187.549 112.095,180.686 C109.613,179.290 110.118,182.059 110.118,182.059 ZM428.459,176.349 C408.867,165.829 288.722,101.311 273.727,93.259 C272.566,92.636 270.454,93.349 270.454,93.349 C270.454,93.349 131.214,166.669 114.291,175.580 C111.846,176.867 114.348,177.699 114.348,177.699 L191.135,220.496 C191.135,220.496 193.242,221.241 194.556,220.489 C206.216,213.815 274.151,174.930 274.151,174.930 L351.416,221.171 C351.416,221.171 354.249,222.323 356.034,221.290 C368.523,214.059 428.845,179.136 428.845,179.136 C428.845,179.136 431.678,178.078 428.459,176.349 Z"/><path class="cls-3" d="M75.001,436.988 C-24.959,337.028 -24.959,174.961 75.001,75.001 C174.961,-24.959 337.028,-24.959 436.988,75.001 "/><path class="cls-4" d="M437.025,75.012 C536.992,174.979 536.992,337.058 437.025,437.025 C337.058,536.992 174.979,536.992 75.012,437.025 "/></svg>
